source/icons/timer.svg

<svg width="298" height="345" viewBox="0 0 298 345" fill="none" xmlns="http://www.w3.org/2000/svg">
<path d="M264.586 102.035L269.936 96.676C277.656 88.9579 279.066 77.7407 273.066 71.7522C267.066 65.7637 255.846 67.1533 248.136 74.8714L242.746 80.2601C221.304 62.8474 195.42 51.7734 168.016 48.288V38.7004H175.676C186.586 38.7004 195.516 29.9925 195.516 19.3552C195.516 8.71783 186.586 0 175.676 0H122.356C111.446 0 102.516 8.70784 102.516 19.3552C102.516 30.0025 111.446 38.7004 122.356 38.7004H130.016V48.288C97.2841 52.4916 66.8739 67.4402 43.5572 90.7884C20.2404 114.137 5.33669 144.563 1.18437 177.294C-2.96795 210.025 3.86613 243.208 20.6143 271.636C37.3625 300.065 63.0771 322.13 93.7233 334.37C124.369 346.61 158.213 348.332 189.944 339.266C221.675 330.199 249.497 310.858 269.046 284.277C288.594 257.695 298.763 225.377 297.956 192.394C297.149 159.411 285.412 127.629 264.586 102.035ZM149.016 306.184C127.226 306.184 105.926 299.724 87.8082 287.621C69.6906 275.518 55.5699 258.315 47.2316 238.189C38.8934 218.062 36.7123 195.916 40.964 174.55C45.2158 153.184 55.7094 133.558 71.118 118.155C86.5265 102.752 106.158 92.2625 127.529 88.0138C148.901 83.765 171.053 85.9477 191.184 94.2856C211.314 102.624 228.52 116.742 240.624 134.857C252.729 152.971 259.188 174.267 259.186 196.051C259.184 225.261 247.575 253.274 226.915 273.927C206.254 294.581 178.234 306.184 149.016 306.184Z" fill="#DEDEDE"/>
<circle cx="149" cy="196" r="117" stroke="#D22856" stroke-width="18"/>
<path d="M145.133 239H85.25V226.402L106.754 204.664C113.121 198.141 117.281 193.629 119.234 191.129C121.188 188.59 122.594 186.246 123.453 184.098C124.312 181.949 124.742 179.723 124.742 177.418C124.742 173.98 123.785 171.422 121.871 169.742C119.996 168.062 117.477 167.223 114.312 167.223C110.992 167.223 107.77 167.984 104.645 169.508C101.52 171.031 98.2578 173.199 94.8594 176.012L85.0156 164.352C89.2344 160.758 92.7305 158.219 95.5039 156.734C98.2773 155.25 101.305 154.117 104.586 153.336C107.867 152.516 111.539 152.105 115.602 152.105C120.953 152.105 125.68 153.082 129.781 155.035C133.883 156.988 137.066 159.723 139.332 163.238C141.598 166.754 142.73 170.777 142.73 175.309C142.73 179.254 142.027 182.965 140.621 186.441C139.254 189.879 137.105 193.414 134.176 197.047C131.285 200.68 126.168 205.855 118.824 212.574L107.809 222.945V223.766H145.133V239ZM215.621 221.246H205.309V239H187.613V221.246H151.051V208.648L188.609 153.336H205.309V207.184H215.621V221.246ZM187.613 207.184V192.652C187.613 190.23 187.711 186.715 187.906 182.105C188.102 177.496 188.258 174.82 188.375 174.078H187.906C186.461 177.281 184.723 180.406 182.691 183.453L166.988 207.184H187.613Z" fill="#D22856"/>
</svg>

<svg viewBox="0 0 298 345" xmlns="http://www.w3.org/2000/svg"><path d="m264.586 102.035 5.35-5.359c7.72-7.718 9.13-18.935 3.13-24.924-6-5.988-17.22-4.599-24.93 3.12l-5.39 5.388a148.207 148.207 0 0 0-74.73-31.972V38.7h7.66c10.91 0 19.84-8.708 19.84-19.345 0-10.637-8.93-19.355-19.84-19.355h-53.32c-10.91 0-19.84 8.708-19.84 19.355 0 10.648 8.93 19.345 19.84 19.345h7.66v9.588a149.014 149.014 0 0 0-86.459 42.5 148.931 148.931 0 0 0-22.943 180.848 148.988 148.988 0 0 0 73.11 62.734 149.035 149.035 0 0 0 96.22 4.896 149.01 149.01 0 0 0 79.102-54.989 148.935 148.935 0 0 0-4.46-182.242Zm-115.57 204.149c-21.79 0-43.09-6.46-61.208-18.563a110.151 110.151 0 0 1-40.576-49.432 110.118 110.118 0 0 1 23.886-120.034 110.18 110.18 0 0 1 56.411-30.141 110.198 110.198 0 0 1 63.655 6.272 110.162 110.162 0 0 1 49.44 40.571 110.117 110.117 0 0 1-13.709 139.07 110.183 110.183 0 0 1-77.899 32.257Z" fill="#DEDEDE"/><circle cx="149" cy="196" r="117" stroke="#D22856" stroke-width="18" fill="none"/><path d="M145.133 239H85.25v-12.598l21.504-21.738c6.367-6.523 10.527-11.035 12.48-13.535 1.954-2.539 3.36-4.883 4.219-7.031a17.836 17.836 0 0 0 1.289-6.68c0-3.438-.957-5.996-2.871-7.676-1.875-1.68-4.394-2.519-7.559-2.519-3.32 0-6.542.761-9.667 2.285-3.125 1.523-6.387 3.691-9.786 6.504l-9.843-11.66c4.218-3.594 7.715-6.133 10.488-7.618 2.773-1.484 5.801-2.617 9.082-3.398 3.281-.82 6.953-1.231 11.016-1.231 5.351 0 10.078.977 14.179 2.93 4.102 1.953 7.285 4.688 9.551 8.203 2.266 3.516 3.398 7.539 3.398 12.071 0 3.945-.703 7.656-2.109 11.132-1.367 3.438-3.516 6.973-6.445 10.606-2.891 3.633-8.008 8.808-15.352 15.527l-11.015 10.371v.821h37.324V239Zm70.488-17.754h-10.312V239h-17.696v-17.754h-36.562v-12.598l37.558-55.312h16.7v53.848h10.312v14.062Zm-28.008-14.062v-14.532c0-2.422.098-5.937.293-10.547.196-4.609.352-7.285.469-8.027h-.469a65.256 65.256 0 0 1-5.215 9.375l-15.703 23.731h20.625Z" fill="#D22856"/></svg>
